X: 30
T:Fermoy Lasses, The
M:C|
L:1/8
R:Reel
K:EMin
GE~E2 BE~E2|GEEA BcBA|GE~E2 BEGB|AFDF AcBA|!
GE~E2 BE~E2|GEEA BcBA|G2GF GBdB|AFDF A2BA:|!
|:G2BG dGBG|G2Bd efgd|G2BG dGBG|AFDF AcBA|!
G2BG dGBG|G2Bd efg2|gage dedB|AFDF AcBA:|]!
